src/lib/packages/icons/src/assets/line/receipt-heart.svg

<svg width="24" height="24" viewBox="0 0 24 24" fill="none" xmlns="http://www.w3.org/2000/svg">
<path d="M12 21.749C11.424 21.749 10.8481 21.53 10.4091 21.091L8.38904 19.072C8.12604 18.81 7.70396 18.781 7.40796 19.003L6.05005 20.022C5.51605 20.422 4.81302 20.485 4.21802 20.187C3.62102 19.889 3.25 19.289 3.25 18.622V6C3.25 3.582 4.582 2.25 7 2.25H17C19.418 2.25 20.75 3.582 20.75 6V18.621C20.75 19.288 20.379 19.888 19.782 20.186C19.187 20.484 18.484 20.421 17.95 20.021L16.5909 19.001C16.2959 18.779 15.873 18.808 15.611 19.071L13.5909 21.09C13.1519 21.53 12.576 21.749 12 21.749ZM7.85596 17.356C8.43696 17.356 9.01595 17.578 9.44995 18.011L11.47 20.031C11.753 20.314 12.247 20.314 12.531 20.031L14.551 18.012C15.338 17.225 16.604 17.137 17.491 17.803L18.851 18.823C18.958 18.905 19.06 18.872 19.113 18.847C19.164 18.821 19.251 18.758 19.251 18.623V6C19.251 4.423 18.578 3.75 17.001 3.75H7.00098C5.42398 3.75 4.75098 4.423 4.75098 6V18.621C4.75098 18.756 4.83804 18.819 4.88904 18.845C4.94104 18.871 5.042 18.903 5.151 18.821L6.51001 17.801C6.90801 17.503 7.38296 17.356 7.85596 17.356ZM12 15.722C11.895 15.722 11.789 15.7 11.691 15.656C11.538 15.587 7.92701 13.924 7.33801 10.91C7.10001 9.691 7.33606 8.53499 7.98706 7.73999C8.52906 7.07899 9.30295 6.72698 10.226 6.72198C10.231 6.72198 10.236 6.72198 10.24 6.72198C11.01 6.72198 11.589 7.03899 11.999 7.43799C12.412 7.03599 13.027 6.74298 13.77 6.72198C14.694 6.72599 15.468 7.07801 16.01 7.73901C16.66 8.53301 16.8981 9.689 16.6591 10.91C16.0701 13.924 12.46 15.587 12.306 15.656C12.211 15.7 12.105 15.722 12 15.722ZM10.24 8.22198C10.238 8.22198 10.237 8.22198 10.235 8.22198C9.76599 8.22398 9.40105 8.382 9.14905 8.69C8.78705 9.131 8.66104 9.853 8.81104 10.621C9.16604 12.439 11.211 13.704 11.999 14.131C12.787 13.705 14.832 12.44 15.187 10.622C15.337 9.85301 15.211 9.13 14.85 8.69C14.597 8.382 14.232 8.22498 13.762 8.22198C13.761 8.22198 13.759 8.22198 13.757 8.22198C13.021 8.22198 12.736 8.95201 12.707 9.03601C12.6 9.33401 12.315 9.53601 11.999 9.53601C11.997 9.53601 11.994 9.53601 11.991 9.53601C11.672 9.53301 11.388 9.33102 11.287 9.02802C11.262 8.95302 10.978 8.22198 10.24 8.22198ZM15.925 10.766H15.9351H15.925Z" fill="currentColor"/>
</svg>

<svg xmlns="http://www.w3.org/2000/svg" width="24" height="24" fill="none"><path fill="currentColor" d="M12 21.749a2.242 2.242 0 0 1-1.59-.658l-2.021-2.019a.756.756 0 0 0-.981-.069L6.05 20.022c-.534.4-1.237.463-1.832.165a1.74 1.74 0 0 1-.968-1.565V6c0-2.418 1.332-3.75 3.75-3.75h10c2.418 0 3.75 1.332 3.75 3.75v12.621a1.74 1.74 0 0 1-.968 1.565 1.741 1.741 0 0 1-1.832-.165l-1.36-1.02a.753.753 0 0 0-.979.07l-2.02 2.019a2.24 2.24 0 0 1-1.591.659Zm-4.144-4.393c.581 0 1.16.222 1.594.655l2.02 2.02a.77.77 0 0 0 1.061 0l2.02-2.019a2.261 2.261 0 0 1 2.94-.209l1.36 1.02a.24.24 0 0 0 .262.024.241.241 0 0 0 .138-.224V6c0-1.577-.673-2.25-2.25-2.25h-10c-1.577 0-2.25.673-2.25 2.25v12.621c0 .135.087.198.138.224a.238.238 0 0 0 .262-.024l1.359-1.02a2.243 2.243 0 0 1 1.346-.445ZM12 15.722a.756.756 0 0 1-.309-.066c-.153-.069-3.764-1.732-4.353-4.746-.238-1.219-.002-2.375.65-3.17.541-.661 1.315-1.013 2.238-1.018h.014c.77 0 1.349.317 1.759.716.413-.402 1.028-.695 1.771-.716.924.004 1.698.356 2.24 1.017.65.794.888 1.95.65 3.171-.59 3.014-4.2 4.677-4.354 4.746a.732.732 0 0 1-.306.066Zm-1.76-7.5h-.005c-.469.002-.834.16-1.086.468-.362.441-.488 1.163-.338 1.931.355 1.818 2.4 3.083 3.188 3.51.788-.426 2.833-1.691 3.188-3.509.15-.769.024-1.492-.337-1.932-.253-.308-.618-.465-1.088-.468h-.005c-.736 0-1.021.73-1.05.814a.756.756 0 0 1-.708.5h-.008a.747.747 0 0 1-.704-.508c-.025-.075-.309-.806-1.047-.806Zm5.685 2.544h.01-.01Z"/></svg>
